images_sukapura_svg/cmd/32/commentchangetracking.svg

<?xml version="1.0" encoding="UTF-8" standalone="no"?>
<svg
   xmlns:dc="http://purl.org/dc/elements/1.1/"
   xmlns:cc="http://creativecommons.org/ns#"
   xmlns:rdf="http://www.w3.org/1999/02/22-rdf-syntax-ns#"
   xmlns:svg="http://www.w3.org/2000/svg"
   xmlns="http://www.w3.org/2000/svg"
   xmlns:sodipodi="http://sodipodi.sourceforge.net/DTD/sodipodi-0.dtd"
   xmlns:inkscape="http://www.inkscape.org/namespaces/inkscape"
   viewBox="0 0 32 32"
   version="1.1"
   id="svg36"
   sodipodi:docname="commentchangetracking.svg"
   inkscape:version="0.92.3 (unknown)"
   inkscape:export-filename="/home/rizmut/Dokumen/Rizmut/Github/libreoffice-style-sukapura/images_sukapura/cmd/32/commentchangetracking.png"
   inkscape:export-xdpi="96"
   inkscape:export-ydpi="96">
  <metadata
     id="metadata42">
    <rdf:RDF>
      <cc:Work
         rdf:about="">
        <dc:format>image/svg+xml</dc:format>
        <dc:type
           rdf:resource="http://purl.org/dc/dcmitype/StillImage" />
        <dc:title></dc:title>
      </cc:Work>
    </rdf:RDF>
  </metadata>
  <defs
     id="defs40">
    <linearGradient
       id="b"
       gradientUnits="userSpaceOnUse"
       x1="20"
       x2="23"
       y1="9"
       y2="6">
      <stop
         offset="0"
         stop-color="#fff"
         id="stop1004" />
      <stop
         offset=".77967989"
         stop-color="#f1f1f1"
         id="stop1006" />
      <stop
         offset="1"
         stop-color="#d5d5d5"
         id="stop1008" />
    </linearGradient>
    <radialGradient
       id="a"
       cx="22"
       cy="9.0769234"
       gradientTransform="matrix(1.3,1e-8,-2e-8,1.5,-6.6,-6.615385)"
       gradientUnits="userSpaceOnUse"
       r="10">
      <stop
         offset="0"
         stop-color="#d7d7d7"
         id="stop997" />
      <stop
         offset=".29999998"
         stop-color="#f7f7f7"
         id="stop999" />
      <stop
         offset="1"
         stop-color="#fff"
         id="stop1001" />
    </radialGradient>
  </defs>
  <sodipodi:namedview
     pagecolor="#ffffff"
     bordercolor="#666666"
     borderopacity="1"
     objecttolerance="10"
     gridtolerance="10"
     guidetolerance="10"
     inkscape:pageopacity="0"
     inkscape:pageshadow="2"
     inkscape:window-width="1366"
     inkscape:window-height="699"
     id="namedview38"
     showgrid="true"
     inkscape:zoom="10.429825"
     inkscape:cx="8.4027525"
     inkscape:cy="9.8779324"
     inkscape:window-x="0"
     inkscape:window-y="0"
     inkscape:window-maximized="1"
     inkscape:current-layer="svg36"
     inkscape:snap-global="false">
    <inkscape:grid
       type="xygrid"
       id="grid1653" />
  </sodipodi:namedview>
  <path
     style="fill:url(#a)"
     d="M 6,3 V 29 H 26 V 14.189453 10 L 19,3 Z M 25.998047,26.066406 26,29 h -0.002 z"
     id="path1011"
     inkscape:connector-curvature="0"
     sodipodi:nodetypes="ccccccccccc" />
  <path
     style="fill:#98989d;fill-opacity:1"
     d="M 5.9980469 2 C 5.4440469 2 4.9980469 2.446 4.9980469 3 L 4.9980469 29 C 4.9980469 29.554 5.4440469 30 5.9980469 30 L 13 30 L 13.482422 30 L 22.087891 30 L 24 30 L 25.998047 30 C 26.552047 30 26.89053 29.543467 26.998047 29 L 26.998047 26 L 27 26 L 27 13 L 26.998047 13 L 26.998047 8.3847656 L 20.490234 2 L 5.9980469 2 z M 5.9980469 3 L 18.998047 3 L 18.998047 9 C 18.998047 9.6726441 19.489425 10 19.998047 10 L 25.998047 10 L 25.998047 14.189453 C 25.998047 14.189453 26 14.189453 26 14.189453 L 26 26 L 26.064453 26 L 25.998047 26.066406 L 25.998047 29 L 24 29 L 23.082031 29 L 13.728516 29 L 13 29 L 5.9980469 29 L 5.9980469 3 z "
     id="path4" />
  <rect
     fill="#808080"
     height="1"
     ry=".5"
     width="5"
     x="8"
     y="10"
     id="rect14"
     style="fill:#98989d;fill-opacity:1" />
  <rect
     fill="#808080"
     height="1"
     ry=".5"
     width="9"
     x="8"
     y="14"
     id="rect16"
     style="fill:#98989d;fill-opacity:1" />
  <g
     fill="#d65532"
     id="g24"
     style="fill:#ff9f0a;fill-opacity:1">
    <rect
       height="1"
       ry=".5"
       width="5"
       x="19"
       y="14"
       id="rect18"
       style="fill:#ff9f0a;fill-opacity:1" />
    <rect
       height="1"
       ry=".5"
       width="7"
       x="8"
       y="18"
       id="rect20"
       style="fill:#ff9f0a;fill-opacity:1" />
    <path
       style="fill:#ff9f0a;fill-opacity:1"
       d="M 8.5 26 C 8.223 26 8 26.223 8 26.5 C 8 26.777 8.223 27 8.5 27 L 14.220703 27 L 14.466797 26 L 8.5 26 z "
       id="rect22" />
  </g>
  <g
     fill="#808080"
     id="g34">
    <rect
       height="1"
       ry=".474576"
       width="4"
       x="8"
       y="22"
       id="rect26"
       style="fill:#98989d;fill-opacity:1" />
    <path
       style="fill:#98989d;fill-opacity:1"
       d="M 14.474609 22 C 14.211694 22 14 22.211694 14 22.474609 L 14 22.525391 C 14 22.788306 14.211694 23 14.474609 23 L 16.771484 23 L 17.724609 22.046875 C 17.663714 22.018562 17.597203 22 17.525391 22 L 14.474609 22 z "
       id="rect28" />
    <rect
       height="1"
       ry=".474576"
       width="4"
       x="17"
       y="18"
       id="rect30"
       style="fill:#98989d;fill-opacity:1" />
    <rect
       height="1"
       ry=".5"
       width="2"
       x="15"
       y="10"
       id="rect32"
       style="fill:#98989d;fill-opacity:1" />
  </g>
  <path
     inkscape:connector-curvature="0"
     style="fill:url(#b);fill-rule:evenodd"
     d="m 20,9 h 6 L 20,3 Z"
     id="path1015" />
  <circle
     style="fill:#ffffff"
     cx="23"
     cy="23"
     r="6"
     id="circle28" />
  <g
     transform="translate(46,6.000851)"
     id="g34-6">
    <path
       style="fill:#ffffff"
       inkscape:connector-curvature="0"
       d="m -27.625,12.374787 c 1.8e-5,-1.8e-5 0,8.250093 0,8.250093 h 2.25 v 2.999953 L -22,20.62488 h 5.625 v -8.250093 z"
       id="path30" />
    <path
       style="fill:#ff9500;fill-opacity:1"
       inkscape:connector-curvature="0"
       d="m -27.625,11.999787 a 0.375,0.375 0 0 0 -0.375,0.375 0.375,0.375 0 0 0 0.0059,0.06592 H -28 v 4.059082 4.125 a 0.3750375,0.3750375 0 0 0 0.375,0.375 h 1.875 v 2.625 a 0.3750375,0.3750375 0 0 0 0.624023,0.279785 l 3.268067,-2.904785 h 5.48291 a 0.3750375,0.3750375 0 0 0 0.375,-0.375 v -8.25 a 0.3750375,0.3750375 0 0 0 -0.375,-0.375 h -11.25 z m 0.375,0.75 h 10.5 v 7.5 H -22 a 0.3750375,0.3750375 0 0 0 -0.249023,0.09521 L -25,22.789826 v -2.165039 a 0.3750375,0.3750375 0 0 0 -0.375,-0.375 h -1.875 v -3.75 z"
       id="path32" />
  </g>
</svg>

<svg viewBox="0 0 32 32" xmlns="http://www.w3.org/2000/svg" xmlns:xlink="http://www.w3.org/1999/xlink"><linearGradient id="a" gradientUnits="userSpaceOnUse" x1="20" x2="23" y1="9" y2="6"><stop offset="0" stop-color="#fff"/><stop offset=".77967989" stop-color="#f1f1f1"/><stop offset="1" stop-color="#d5d5d5"/></linearGradient><radialGradient id="b" cx="22" cy="9.076923" gradientTransform="matrix(1.3 .00000001 -.00000002 1.5 -6.6 -6.615385)" gradientUnits="userSpaceOnUse" r="10"><stop offset="0" stop-color="#d7d7d7"/><stop offset=".29999998" stop-color="#f7f7f7"/><stop offset="1" stop-color="#fff"/></radialGradient><path d="m6 3v26h20v-14.810547-4.189453l-7-7zm19.998047 23.066406.001953 2.933594h-.002z" fill="url(#b)"/><g fill="#98989d"><path d="m5.9980469 2c-.554 0-1 .446-1 1v26c0 .554.446 1 1 1h7.0019531.482422 8.605469 1.912109 1.998047c.554 0 .892483-.456533 1-1v-3h.001953v-13h-.001953v-4.6152344l-6.507813-6.3847656zm0 1h13.0000001v6c0 .6726441.491378 1 1 1h6v4.189453h.001953v11.810547h.064453l-.066406.066406v2.933594h-1.998047-.917969-9.353515-.728516-7.0019531z"/><rect height="1" ry=".5" width="5" x="8" y="10"/><rect height="1" ry=".5" width="9" x="8" y="14"/></g><g fill="#ff9f0a"><rect height="1" ry=".5" width="5" x="19" y="14"/><rect height="1" ry=".5" width="7" x="8" y="18"/><path d="m8.5 26c-.277 0-.5.223-.5.5s.223.5.5.5h5.720703l.246094-1z"/></g><g fill="#98989d"><rect height="1" ry=".474576" width="4" x="8" y="22"/><path d="m14.474609 22c-.262915 0-.474609.211694-.474609.474609v.050782c0 .262915.211694.474609.474609.474609h2.296875l.953125-.953125c-.060895-.028313-.127406-.046875-.199218-.046875z"/><rect height="1" ry=".474576" width="4" x="17" y="18"/><rect height="1" ry=".5" width="2" x="15" y="10"/></g><path d="m20 9h6l-6-6z" fill="url(#a)" fill-rule="evenodd"/><circle cx="23" cy="23" fill="#fff" r="6"/><g transform="translate(46 6.000851)"><path d="m-27.625 12.374787c.000018-.000018 0 8.250093 0 8.250093h2.25v2.999953l3.375-2.999953h5.625v-8.250093z" fill="#fff"/><path d="m-27.625 11.999787a.375.375 0 0 0 -.375.375.375.375 0 0 0 .0059.06592h-.0059v4.059082 4.125a.3750375.3750375 0 0 0 .375.375h1.875v2.625a.3750375.3750375 0 0 0 .624023.279785l3.268067-2.904785h5.48291a.3750375.3750375 0 0 0 .375-.375v-8.25a.3750375.3750375 0 0 0 -.375-.375h-11.25zm.375.75h10.5v7.5h-5.25a.3750375.3750375 0 0 0 -.249023.09521l-2.750977 2.444829v-2.165039a.3750375.3750375 0 0 0 -.375-.375h-1.875v-3.75z" fill="#ff9500"/></g></svg>
